X:290
M:4/4
L:1/4
K:F
F2 F G | A2 (G A) | B2 (A G) | A4 | A2 A A | B2 (A G) | F2 (E F) | G4 | F2 FG | A2 (G A) | B2 (A G) | A4 | !sintro!A2 A A | G2 F2 | G2 (A F) | F4 !eintro!|]
